epam-assets/icon-sources/18/action-drag_indicator.svg

<svg xmlns="http://www.w3.org/2000/svg" width="18" height="18" fill="none" viewBox="0 0 18 18">
  <path fill="#6C6F80" fill-rule="evenodd" d="M8 13.5c0 .825-.675 1.5-1.5 1.5S5 14.325 5 13.5 5.675 12 6.5 12s1.5.675 1.5 1.5Zm-1.5-6C5.675 7.5 5 8.175 5 9s.675 1.5 1.5 1.5S8 9.825 8 9s-.675-1.5-1.5-1.5Zm0-4.5C5.675 3 5 3.675 5 4.5S5.675 6 6.5 6 8 5.325 8 4.5 7.325 3 6.5 3Zm5 3c.825 0 1.5-.675 1.5-1.5S12.325 3 11.5 3 10 3.675 10 4.5 10.675 6 11.5 6Zm0 1.5c-.825 0-1.5.675-1.5 1.5s.675 1.5 1.5 1.5S13 9.825 13 9s-.675-1.5-1.5-1.5Zm0 4.5c-.825 0-1.5.675-1.5 1.5s.675 1.5 1.5 1.5 1.5-.675 1.5-1.5-.675-1.5-1.5-1.5Z" clip-rule="evenodd"/>
</svg>

<svg width="18" height="18" viewBox="0 0 18 18" fill="none" xmlns="http://www.w3.org/2000/svg">
<path fill-rule="evenodd" clip-rule="evenodd" d="M8 13.5C8 14.325 7.325 15 6.5 15C5.675 15 5 14.325 5 13.5C5 12.675 5.675 12 6.5 12C7.325 12 8 12.675 8 13.5ZM6.5 7.5C5.675 7.5 5 8.175 5 9C5 9.825 5.675 10.5 6.5 10.5C7.325 10.5 8 9.825 8 9C8 8.175 7.325 7.5 6.5 7.5ZM6.5 3C5.675 3 5 3.675 5 4.5C5 5.325 5.675 6 6.5 6C7.325 6 8 5.325 8 4.5C8 3.675 7.325 3 6.5 3ZM11.5 6C12.325 6 13 5.325 13 4.5C13 3.675 12.325 3 11.5 3C10.675 3 10 3.675 10 4.5C10 5.325 10.675 6 11.5 6ZM11.5 7.5C10.675 7.5 10 8.175 10 9C10 9.825 10.675 10.5 11.5 10.5C12.325 10.5 13 9.825 13 9C13 8.175 12.325 7.5 11.5 7.5ZM11.5 12C10.675 12 10 12.675 10 13.5C10 14.325 10.675 15 11.5 15C12.325 15 13 14.325 13 13.5C13 12.675 12.325 12 11.5 12Z" fill="#6C6F80"/>
</svg>
